;FLAVOR:Marlin
;TIME:333
;Filament used: 0.105879m
;Layer height: 0.2
;MINX:93.45
;MINY:96.1
;MINZ:0.2
;MAXX:126.55
;MAXY:123.9
;MAXZ:6.6
;Generated with Cura_SteamEngine 5.2.2
M140 S50
M105
M190 S50
M104 S200
M105
M109 S200
M82 ;absolute extrusion mode
; Ender 3 Custom Start G-code
G92 E0 ; Reset Extruder
G28 ; Home all axes
M420 S1 Z3;
G1 Z2.0 F3000 ; Move Z Axis up little to prevent scratching of Heat Bed
G1 X0.1 Y20 Z0.3 F5000.0 ; Move to start position
G1 X0.v1 Y200.0 Z0.3 F1500.0 E15 ; Draw the first line
G1 X0.4 Y200.0 Z0.3 F5000.0 ; Move to side a little
G1 X0.4 Y20 Z0.3 F1500.0 E30 ; Draw the second line
G92 E0 ; Reset Extruder
G1 Z2.0 F3000 ; Move Z Axis up little to prevent scratching of Heat Bed
G1 X5 Y20 Z0.3 F5000.0 ; Move over to prevent blob squish
G92 E0
G92 E0
G1 F2700 E-5
;LAYER_COUNT:34
;LAYER:0
M107
G0 F6000 X96.648 Y99.364 Z0.2
;TYPE:SKIRT
G1 F2700 E0
G1 F1200 X97.336 Y98.727 E0.03119
G1 X98.076 Y98.151 E0.06237
G1 X98.862 Y97.639 E0.09357
G1 X99.689 Y97.197 E0.12476
G1 X100.551 Y96.827 E0.15596
G1 X101.441 Y96.531 E0.18716
G1 X102.353 Y96.313 E0.21835
G1 X103.28 Y96.172 E0.24953
G1 X104.151 Y96.113 E0.27857
G1 X104.78 Y96.1 E0.29949
G1 X115.001 Y96.101 E0.63945
G1 X115.699 Y96.111 E0.66266
G1 X116.635 Y96.165 E0.69385
G1 X117.563 Y96.297 E0.72502
G1 X118.477 Y96.509 E0.75623
G1 X119.369 Y96.798 E0.78742
G1 X120.234 Y97.161 E0.81862
G1 X121.064 Y97.597 E0.8498
G1 X121.855 Y98.102 E0.88101
G1 X122.599 Y98.673 E0.91221
G1 X123.292 Y99.305 E0.9434
G1 X123.929 Y99.993 E0.97459
G1 X124.504 Y100.734 E1.00578
G1 X125.015 Y101.52 E1.03696
G1 X125.457 Y102.348 E1.06818
G1 X125.826 Y103.21 E1.09937
G1 X126.121 Y104.1 E1.13055
G1 X126.339 Y105.012 E1.16174
G1 X126.479 Y105.94 E1.19296
G1 X126.537 Y106.801 E1.22166
G1 X126.55 Y107.43 E1.24258
G1 X126.549 Y112.3 E1.40456
G1 X126.54 Y113.027 E1.42874
G1 X126.489 Y113.964 E1.45995
G1 X126.357 Y114.892 E1.49113
G1 X126.148 Y115.806 E1.52231
G1 X125.861 Y116.699 E1.55351
G1 X125.499 Y117.565 E1.58473
G1 X125.065 Y118.396 E1.61591
G1 X124.561 Y119.187 E1.64711
G1 X123.992 Y119.932 E1.67828
G1 X123.361 Y120.627 E1.70951
G1 X122.674 Y121.265 E1.74069
G1 X121.935 Y121.842 E1.77187
G1 X121.149 Y122.354 E1.80307
G1 X120.323 Y122.797 E1.83425
G1 X119.461 Y123.169 E1.86547
G1 X118.572 Y123.465 E1.89664
G1 X117.66 Y123.685 E1.92784
G1 X116.733 Y123.826 E1.95903
G1 X115.849 Y123.887 E1.9885
G1 X115.22 Y123.9 E2.00943
G1 X105.015 Y123.899 E2.34885
G1 X104.317 Y123.89 E2.37206
G1 X103.381 Y123.838 E2.40324
G1 X102.452 Y123.706 E2.43445
G1 X101.538 Y123.496 E2.46564
G1 X100.645 Y123.209 E2.49684
G1 X99.78 Y122.846 E2.52804
G1 X98.949 Y122.412 E2.55922
G1 X98.158 Y121.908 E2.59042
G1 X97.413 Y121.338 E2.62162
G1 X96.719 Y120.707 E2.65281
G1 X96.082 Y120.02 E2.68398
G1 X95.505 Y119.28 E2.71519
G1 X94.993 Y118.494 E2.74639
G1 X94.55 Y117.667 E2.77759
G1 X94.179 Y116.806 E2.80877
G1 X93.883 Y115.916 E2.83997
G1 X93.664 Y115.004 E2.87116
G1 X93.523 Y114.077 E2.90235
G1 X93.463 Y113.188 E2.93199
G1 X93.45 Y112.558 E2.95294
G1 X93.451 Y107.625 E3.11702
G1 X93.46 Y106.96 E3.13914
G1 X93.513 Y106.024 E3.17032
G1 X93.645 Y105.095 E3.20153
G1 X93.856 Y104.181 E3.23273
G1 X94.144 Y103.289 E3.2639
G1 X94.507 Y102.424 E3.2951
G1 X94.942 Y101.593 E3.3263
G1 X95.446 Y100.803 E3.35747
G1 X96.016 Y100.058 E3.38867
G1 X96.648 Y99.364 E3.41989
G0 F6000 X97.039 Y99.539
G1 F1200 X97.724 Y98.923 E3.45053
G1 X98.46 Y98.37 E3.48115
G1 X99.241 Y97.882 E3.51178
G1 X100.061 Y97.464 E3.54239
G1 X100.915 Y97.119 E3.57302
G1 X101.795 Y96.849 E3.60364
G1 X102.695 Y96.657 E3.63425
G1 X103.609 Y96.543 E3.66488
G1 X104.162 Y96.513 E3.6833
G1 X104.78 Y96.5 E3.70386
G1 X114.843 Y96.5 E4.03856
G1 X115.693 Y96.511 E4.06683
G1 X116.612 Y96.564 E4.09745
G1 X117.523 Y96.697 E4.12807
G1 X118.419 Y96.908 E4.15868
G1 X119.293 Y97.196 E4.18929
G1 X120.14 Y97.559 E4.21994
G1 X120.951 Y97.994 E4.25055
G1 X121.721 Y98.498 E4.28116
G1 X122.445 Y99.067 E4.31179
G1 X123.117 Y99.697 E4.34242
G1 X123.732 Y100.382 E4.37304
G1 X124.285 Y101.118 E4.40366
G1 X124.772 Y101.899 E4.43427
G1 X125.189 Y102.72 E4.4649
G1 X125.534 Y103.574 E4.49553
G1 X125.803 Y104.454 E4.52614
G1 X125.995 Y105.355 E4.55678
G1 X126.108 Y106.268 E4.58738
G1 X126.137 Y106.812 E4.6055
G1 X126.15 Y107.43 E4.62606
G1 X126.149 Y112.295 E4.78787
G1 X126.14 Y113.022 E4.81205
G1 X126.089 Y113.941 E4.84266
G1 X125.958 Y114.853 E4.87331
G1 X125.748 Y115.749 E4.90392
G1 X125.462 Y116.624 E4.93453
G1 X125.101 Y117.471 E4.96516
G1 X124.667 Y118.283 E4.99578
G1 X124.165 Y119.055 E5.02641
G1 X123.597 Y119.78 E5.05704
G1 X122.969 Y120.453 E5.08766
G1 X122.285 Y121.069 E5.11827
G1 X121.55 Y121.623 E5.14889
G1 X120.77 Y122.112 E5.1795
G1 X119.95 Y122.531 E5.21013
G1 X119.097 Y122.877 E5.24075
G1 X118.217 Y123.148 E5.27137
G1 X117.317 Y123.341 E5.30199
G1 X116.403 Y123.456 E5.33263
G1 X115.838 Y123.487 E5.35145
G1 X115.22 Y123.5 E5.37201
G1 X105.02 Y123.499 E5.71126
G1 X104.322 Y123.49 E5.73448
G1 X103.403 Y123.438 E5.76509
G1 X102.492 Y123.307 E5.7957
G1 X101.596 Y123.097 E5.82631
G1 X100.721 Y122.81 E5.85694
G1 X99.874 Y122.448 E5.88758
G1 X99.062 Y122.014 E5.9182
G1 X98.291 Y121.512 E5.9488
G1 X97.566 Y120.944 E5.97943
G1 X96.893 Y120.315 E6.01007
G1 X96.278 Y119.631 E6.04067
G1 X95.724 Y118.896 E6.07128
G1 X95.236 Y118.115 E6.10191
G1 X94.817 Y117.295 E6.13254
G1 X94.471 Y116.442 E6.16315
G1 X94.201 Y115.562 E6.19377
G1 X94.008 Y114.661 E6.22441
G1 X93.894 Y113.748 E6.25502
G1 X93.863 Y113.177 E6.27404
G1 X93.85 Y112.558 E6.29463
G1 X93.851 Y107.631 E6.4585
G1 X93.86 Y106.966 E6.48062
G1 X93.912 Y106.046 E6.51127
G1 X94.044 Y105.135 E6.54189
G1 X94.255 Y104.239 E6.5725
G1 X94.542 Y103.364 E6.60313
G1 X94.905 Y102.518 E6.63375
G1 X95.339 Y101.706 E6.66437
G1 X95.842 Y100.935 E6.69499
G1 X96.411 Y100.211 E6.72562
G1 X97.039 Y99.539 E6.75621
G0 F6000 X97.431 Y99.717
G1 F1200 X98.112 Y99.124 E6.78624
G1 X98.844 Y98.594 E6.8163
G1 X99.619 Y98.131 E6.84633
G1 X100.432 Y97.738 E6.87636
G1 X101.277 Y97.418 E6.90641
G1 X102.146 Y97.175 E6.93643
G1 X103.034 Y97.009 E6.96647
G1 X104.173 Y96.913 E7.00449
G1 X104.78 Y96.9 E7.02468
G1 X114.843 Y96.9 E7.35938
G1 X115.687 Y96.911 E7.38745
G1 X116.589 Y96.964 E7.41751
G1 X117.482 Y97.096 E7.44753
G1 X118.36 Y97.307 E7.47757
G1 X119.216 Y97.595 E7.5076
G1 X120.043 Y97.957 E7.53763
G1 X120.835 Y98.392 E7.56768
G1 X121.586 Y98.894 E7.59773
G1 X122.289 Y99.461 E7.62777
G1 X122.939 Y100.088 E7.65781
G1 X123.531 Y100.77 E7.68784
G1 X124.061 Y101.501 E7.71787
G1 X124.523 Y102.277 E7.74791
G1 X124.916 Y103.09 E7.77795
G1 X125.234 Y103.935 E7.80797
G1 X125.477 Y104.805 E7.83802
G1 X125.642 Y105.693 E7.86806
G1 X125.737 Y106.823 E7.90578
G1 X125.75 Y107.43 E7.92597
G1 X125.749 Y112.29 E8.08761
G1 X125.74 Y113.017 E8.1118
G1 X125.689 Y113.919 E8.14184
G1 X125.558 Y114.813 E8.1719
G1 X125.349 Y115.691 E8.20191
G1 X125.063 Y116.548 E8.23196
G1 X124.702 Y117.376 E8.26201
G1 X124.27 Y118.168 E8.29201
G1 X123.769 Y118.92 E8.32207
G1 X123.203 Y119.624 E8.35211
G1 X122.578 Y120.275 E8.38213
G1 X121.897 Y120.869 E8.41218
G1 X121.166 Y121.4 E8.44223
G1 X120.392 Y121.864 E8.47225
G1 X119.579 Y122.258 E8.5023
G1 X118.735 Y122.578 E8.53232
G1 X117.865 Y122.823 E8.56238
G1 X116.978 Y122.989 E8.59239
G1 X115.827 Y123.087 E8.63081
G1 X115.22 Y123.1 E8.65101
G1 X105.025 Y123.099 E8.9901
G1 X104.327 Y123.09 E9.01331
G1 X103.426 Y123.039 E9.04333
G1 X102.532 Y122.907 E9.07339
G1 X101.654 Y122.698 E9.1034
G1 X100.797 Y122.411 E9.13346
G1 X99.97 Y122.05 E9.16348
G1 X99.177 Y121.617 E9.19353
G1 X98.426 Y121.116 E9.22355
G1 X97.722 Y120.55 E9.2536
G1 X97.071 Y119.924 E9.28364
G1 X96.478 Y119.243 E9.31367
G1 X95.948 Y118.512 E9.3437
G1 X95.484 Y117.737 E9.37375
G1 X95.09 Y116.924 E9.40379
G1 X94.77 Y116.08 E9.43382
G1 X94.526 Y115.21 E9.46387
G1 X94.36 Y114.322 E9.49391
G1 X94.263 Y113.167 E9.53247
G1 X94.25 Y112.558 E9.55273
G1 X94.251 Y107.636 E9.71643
G1 X94.26 Y106.971 E9.73855
G1 X94.312 Y106.069 E9.7686
G1 X94.444 Y105.176 E9.79863
G1 X94.654 Y104.298 E9.82865
G1 X94.941 Y103.441 E9.85871
G1 X95.303 Y102.614 E9.88874
G1 X95.736 Y101.822 E9.91876
G1 X96.238 Y101.071 E9.9488
G1 X96.805 Y100.367 E9.97887
G1 X97.431 Y99.717 E10.00888
G1 F2700 E5.00888
;MESH:phone-clamp-nut-plug.stl
G0 F6000 X104.864 Y106.435
G0 X105.05 Y112.3
;TYPE:WALL-INNER
G1 F2700 E10.00888
G1 F1200 X114.95 Y112.3 E10.33816
G1 X114.95 Y107.7 E10.49116
G1 X105.05 Y107.7 E10.82043
G1 X105.05 Y112.3 E10.97343
G0 F6000 X104.65 Y112.7
;TYPE:WALL-OUTER
G1 F1200 X115.35 Y112.7 E11.32931
G1 X115.35 Y107.3 E11.50892
G1 X104.65 Y107.3 E11.8648
G1 X104.65 Y112.7 E12.0444
G0 F6000 X104.92 Y112.43
G0 X105.15 Y111.94
G0 X105.41 Y111.94
;TYPE:SKIN
G1 F1200 X114.59 Y111.94 E12.34973
G1 X114.59 Y108.06 E12.47878
G1 X105.41 Y108.06 E12.78411
G1 X105.41 Y110 E12.84863
G1 X105.41 Y111.94 E12.91316
G0 F6000 X106.082 Y111.739
G1 F1200 X105.609 Y111.266 E12.93541
G0 F6000 X105.609 Y110.701
G1 F1200 X106.647 Y111.739 E12.98423
G0 F6000 X107.213 Y111.739
G1 F1200 X105.609 Y110.135 E13.05968
G0 F6000 X105.609 Y109.569
G1 F1200 X107.779 Y111.739 E13.16175
G0 F6000 X108.345 Y111.739
G1 F1200 X105.609 Y109.004 E13.29042
G0 F6000 X105.609 Y108.438
G1 F1200 X108.91 Y111.739 E13.44569
G0 F6000 X109.476 Y111.739
G1 F1200 X105.996 Y108.259 E13.60938
G0 F6000 X106.562 Y108.259
G1 F1200 X110.042 Y111.739 E13.77307
G0 F6000 X110.608 Y111.739
G1 F1200 X107.128 Y108.259 E13.93675
G0 F6000 X107.693 Y108.259
G1 F1200 X111.174 Y111.739 E14.10047
G0 F6000 X111.739 Y111.739
G1 F1200 X108.259 Y108.259 E14.26415
G0 F6000 X108.825 Y108.259
G1 F1200 X112.305 Y111.739 E14.42784
G0 F6000 X112.871 Y111.739
G1 F1200 X109.39 Y108.259 E14.59156
G0 F6000 X109.956 Y108.259
G1 F1200 X113.436 Y111.739 E14.75524
G0 F6000 X114.002 Y111.739
G1 F1200 X110.522 Y108.26 E14.91891
G0 F6000 X111.088 Y108.26
G1 F1200 X114.389 Y111.56 E15.07415
G0 F6000 X114.389 Y110.995
G1 F1200 X111.654 Y108.26 E15.2028
G0 F6000 X112.219 Y108.26
G1 F1200 X114.389 Y110.429 E15.30485
G0 F6000 X114.389 Y109.863
G1 F1200 X112.785 Y108.26 E15.38027
G0 F6000 X113.351 Y108.26
G1 F1200 X114.389 Y109.298 E15.42909
G0 F6000 X114.389 Y108.732
G1 F1200 X113.917 Y108.26 E15.4513
;MESH:NONMESH
G0 F300 X113.917 Y108.26 Z0.4
G0 F6000 X113.917 Y107.8
G0 X105.222 Y107.872
G0 X105.05 Y112.3
;TIME_ELAPSED:30.922630
;LAYER:1
;TYPE:WALL-INNER
;MESH:phone-clamp-nut-plug.stl
G1 F1003.2 X114.95 Y112.3 E15.78057
G1 X114.95 Y107.7 E15.93357
G1 X105.05 Y107.7 E16.26284
G1 X105.05 Y112.3 E16.41584
G0 F7500 X104.65 Y112.7
;TYPE:WALL-OUTER
G1 F1003.2 X115.35 Y112.7 E16.77172
G1 X115.35 Y107.3 E16.95133
G1 X104.65 Y107.3 E17.30721
G1 X104.65 Y112.7 E17.48682
G0 F7500 X104.92 Y112.43
G0 X105.15 Y111.94
G0 X105.41 Y111.94
;TYPE:SKIN
G1 F1003.2 X114.59 Y111.94 E17.79214
G1 X114.59 Y108.06 E17.92119
G1 X105.41 Y108.06 E18.22652
G1 X105.41 Y110 E18.29105
G1 X105.41 Y111.94 E18.35557
G0 F7500 X105.15 Y111.94
G0 X105.15 Y108.784
G0 X105.609 Y108.784
G1 F1003.2 X106.136 Y108.258 E18.38034
G0 F7500 X106.701 Y108.258
G1 F1003.2 X105.609 Y109.35 E18.4317
G0 F7500 X105.609 Y109.916
G1 F1003.2 X107.267 Y108.258 E18.50969
G0 F7500 X107.833 Y108.258
G1 F1003.2 X105.609 Y110.481 E18.61427
G0 F7500 X105.609 Y111.047
G1 F1003.2 X108.398 Y108.258 E18.74546
G0 F7500 X108.964 Y108.258
G1 F1003.2 X105.609 Y111.613 E18.90327
G0 F7500 X106.049 Y111.739
G1 F1003.2 X109.53 Y108.258 E19.067
G0 F7500 X110.095 Y108.259
G1 F1003.2 X106.614 Y111.739 E19.23072
G0 F7500 X107.18 Y111.739
G1 F1003.2 X110.66 Y108.259 E19.39441
G0 F7500 X111.226 Y108.259
G1 F1003.2 X107.746 Y111.739 E19.55809
G0 F7500 X108.311 Y111.739
G1 F1003.2 X111.792 Y108.259 E19.72181
G0 F7500 X112.357 Y108.259
G1 F1003.2 X108.877 Y111.739 E19.88549
G0 F7500 X109.443 Y111.739
G1 F1003.2 X112.923 Y108.259 E20.04918
G0 F7500 X113.489 Y108.259
G1 F1003.2 X110.008 Y111.74 E20.21292
G0 F7500 X110.573 Y111.74
G1 F1003.2 X114.054 Y108.259 E20.37665
G0 F7500 X114.389 Y108.49
G1 F1003.2 X111.139 Y111.74 E20.52952
G0 F7500 X111.705 Y111.74
G1 F1003.2 X114.389 Y109.056 E20.65577
G0 F7500 X114.389 Y109.622
G1 F1003.2 X112.27 Y111.74 E20.75542
G0 F7500 X112.836 Y111.74
G1 F1003.2 X114.389 Y110.187 E20.82847
G0 F7500 X114.389 Y110.753
G1 F1003.2 X113.402 Y111.74 E20.87489
G0 F7500 X113.967 Y111.74
G1 F1003.2 X114.389 Y111.319 E20.89472
;MESH:NONMESH
G0 F300 X114.389 Y111.319 Z0.6
G0 F7500 X114.85 Y111.319
G0 X114.778 Y112.128
G0 X105.05 Y112.3
;TIME_ELAPSED:42.981530
;LAYER:2
;TYPE:WALL-INNER
;MESH:phone-clamp-nut-plug.stl
G1 F997.2 X114.95 Y112.3 E21.22399
G1 X114.95 Y107.7 E21.37699
G1 X105.05 Y107.7 E21.70627
G1 X105.05 Y112.3 E21.85926
G0 F9000 X104.65 Y112.7
;TYPE:WALL-OUTER
G1 F997.2 X115.35 Y112.7 E22.21515
G1 X115.35 Y107.3 E22.39475
G1 X104.65 Y107.3 E22.75063
G1 X104.65 Y112.7 E22.93024
G0 F9000 X104.92 Y112.43
G0 X105.15 Y111.94
G0 X105.41 Y111.94
;TYPE:SKIN
G1 F997.2 X114.59 Y111.94 E23.23557
G1 X114.59 Y108.06 E23.36462
G1 X105.41 Y108.06 E23.66994
G1 X105.41 Y111.94 E23.79899
G0 F9000 X106.082 Y111.739
G1 F997.2 X105.609 Y111.266 E23.82124
G0 F9000 X105.609 Y110.701
G1 F997.2 X106.647 Y111.739 E23.87007
G0 F9000 X107.213 Y111.739
G1 F997.2 X105.609 Y110.135 E23.94551
G0 F9000 X105.609 Y109.569
G1 F997.2 X107.779 Y111.739 E24.04758
G0 F9000 X108.345 Y111.739
G1 F997.2 X105.609 Y109.004 E24.17625
G0 F9000 X105.609 Y108.438
G1 F997.2 X108.91 Y111.739 E24.33152
G0 F9000 X109.476 Y111.739
G1 F997.2 X105.996 Y108.259 E24.49521
G0 F9000 X106.562 Y108.259
G1 F997.2 X110.042 Y111.739 E24.6589
G0 F9000 X110.608 Y111.739
G1 F997.2 X107.128 Y108.259 E24.82259
G0 F9000 X107.693 Y108.259
G1 F997.2 X111.174 Y111.739 E24.9863
G0 F9000 X111.739 Y111.739
G1 F997.2 X108.259 Y108.259 E25.14999
G0 F9000 X108.825 Y108.259
G1 F997.2 X112.305 Y111.739 E25.31368
G0 F9000 X112.871 Y111.739
G1 F997.2 X109.39 Y108.259 E25.47739
G0 F9000 X109.956 Y108.259
G1 F997.2 X113.436 Y111.739 E25.64108
G0 F9000 X114.002 Y111.739
G1 F997.2 X110.522 Y108.26 E25.80474
G0 F9000 X111.088 Y108.26
G1 F997.2 X114.389 Y111.56 E25.95999
G0 F9000 X114.389 Y110.995
G1 F997.2 X111.654 Y108.26 E26.08863
G0 F9000 X112.219 Y108.26
G1 F997.2 X114.389 Y110.429 E26.19068
G0 F9000 X114.389 Y109.863
G1 F997.2 X112.785 Y108.26 E26.2661
G0 F9000 X113.351 Y108.26
G1 F997.2 X114.389 Y109.298 E26.31493
G0 F9000 X114.389 Y108.732
G1 F997.2 X113.917 Y108.26 E26.33713
;MESH:NONMESH
G0 F300 X113.917 Y108.26 Z0.8
G0 F9000 X113.917 Y107.8
G0 X105.222 Y107.872
G0 X105.05 Y112.3
;TIME_ELAPSED:55.071294
;LAYER:3
;TYPE:WALL-INNER
;MESH:phone-clamp-nut-plug.stl
G1 F999.6 X114.95 Y112.3 E26.66641
G1 X114.95 Y107.7 E26.8194
G1 X105.05 Y107.7 E27.14868
G1 X105.05 Y112.3 E27.30167
G0 F9000 X104.65 Y112.7
;TYPE:WALL-OUTER
G1 F999.6 X115.35 Y112.7 E27.65756
G1 X115.35 Y107.3 E27.83716
G1 X104.65 Y107.3 E28.19305
G1 X104.65 Y112.7 E28.37265
G0 F9000 X104.92 Y112.43
G0 X105.15 Y111.94
G0 X105.41 Y111.94
;TYPE:SKIN
G1 F999.6 X114.59 Y111.94 E28.67798
G1 X114.59 Y108.06 E28.80703
G1 X105.41 Y108.06 E29.11236
G1 X105.41 Y111.94 E29.24141
G0 F9000 X105.15 Y111.94
G0 X105.15 Y108.784
G0 X105.609 Y108.784
G1 F999.6 X106.136 Y108.258 E29.26617
G0 F9000 X106.701 Y108.258
G1 F999.6 X105.609 Y109.35 E29.31753
G0 F9000 X105.609 Y109.916
G1 F999.6 X107.267 Y108.258 E29.39552
G0 F9000 X107.833 Y108.258
G1 F999.6 X105.609 Y110.481 E29.50011
G0 F9000 X105.609 Y111.047
G1 F999.6 X108.398 Y108.258 E29.63129
G0 F9000 X108.964 Y108.258
G1 F999.6 X105.609 Y111.613 E29.7891
G0 F9000 X106.049 Y111.739
G1 F999.6 X109.53 Y108.258 E29.95284
G0 F9000 X110.095 Y108.259
G1 F999.6 X106.614 Y111.739 E30.11655
G0 F9000 X107.18 Y111.739
G1 F999.6 X110.66 Y108.259 E30.28024
G0 F9000 X111.226 Y108.259
G1 F999.6 X107.746 Y111.739 E30.44393
G0 F9000 X108.311 Y111.739
G1 F999.6 X111.792 Y108.259 E30.60764
G0 F9000 X112.357 Y108.259
G1 F999.6 X108.877 Y111.739 E30.77133
G0 F9000 X109.443 Y111.739
G1 F999.6 X112.923 Y108.259 E30.93502
G0 F9000 X113.489 Y108.259
G1 F999.6 X110.008 Y111.74 E31.09875
G0 F9000 X110.573 Y111.74
G1 F999.6 X114.054 Y108.259 E31.26249
G0 F9000 X114.389 Y108.49
G1 F999.6 X111.139 Y111.74 E31.41536
G0 F9000 X111.705 Y111.74
