;FLAVOR:Marlin
;TIME:1296
;Filament used: 0.701071m
;Layer height: 0.2
;MINX:89.001
;MINY:90.5
;MINZ:0.2
;MAXX:130.999
;MAXY:129.5
;MAXZ:13
;Generated with Cura_SteamEngine 5.2.2
M104 S228
M105
M109 S228
M82 ;absolute extrusion mode
; Ender 3 Custom Start G-code
G92 E0 ; Reset Extruder
G28 ; Home all axes
M420 S1 Z3;
G1 Z2.0 F3000 ; Move Z Axis up little to prevent scratching of Heat Bed
G1 X0.1 Y20 Z0.3 F5000.0 ; Move to start position
G1 X0.v1 Y200.0 Z0.3 F1500.0 E15 ; Draw the first line
G1 X0.4 Y200.0 Z0.3 F5000.0 ; Move to side a little
G1 X0.4 Y20 Z0.3 F1500.0 E30 ; Draw the second line
G92 E0 ; Reset Extruder
G1 Z2.0 F3000 ; Move Z Axis up little to prevent scratching of Heat Bed
G1 X5 Y20 Z0.3 F5000.0 ; Move over to prevent blob squish
G92 E0
G92 E0
G1 F1500 E-6.5
;LAYER_COUNT:65
;LAYER:0
M107
G0 F6000 X92.583 Y94.553 Z0.2
;TYPE:SKIRT
G1 F1500 E0
G1 F1200 X93.372 Y93.799 E0.0363
G1 X93.735 Y93.485 E0.05226
G1 X94.469 Y92.902 E0.08344
G1 X95.251 Y92.384 E0.11464
G1 X96.074 Y91.934 E0.14583
G1 X96.581 Y91.7 E0.16441
G1 X97.027 Y91.508 E0.18056
G1 X97.904 Y91.175 E0.21176
G1 X98.753 Y90.929 E0.24116
G1 X99.152 Y90.831 E0.25482
G1 X100.072 Y90.647 E0.28603
G1 X101.004 Y90.541 E0.31723
G1 X101.602 Y90.515 E0.33713
G1 X102.423 Y90.502 E0.36444
G1 X107.77 Y90.5 E0.54229
G1 X108.417 Y90.508 E0.56381
G1 X111.103 Y90.508 E0.65314
G1 X111.812 Y90.5 E0.67673
G1 X117.673 Y90.502 E0.87166
G1 X118.374 Y90.513 E0.89498
G1 X119.31 Y90.568 E0.92617
G1 X120.623 Y90.782 E0.97042
G1 X121.004 Y90.868 E0.98341
G1 X121.909 Y91.113 E1.01459
G1 X122.748 Y91.417 E1.04427
G1 X123.183 Y91.595 E1.0599
G1 X124.035 Y91.987 E1.0911
G1 X124.851 Y92.45 E1.1223
G1 X125.719 Y93.054 E1.15747
G1 X126.22 Y93.448 E1.17867
G1 X126.481 Y93.664 E1.18994
G1 X127.178 Y94.292 E1.22114
G1 X127.818 Y94.977 E1.25232
G1 X128.578 Y95.973 E1.29399
G1 X128.846 Y96.369 E1.3099
G1 X129.338 Y97.167 E1.34108
G1 X129.815 Y98.127 E1.37673
G1 X130.01 Y98.573 E1.39292
G1 X130.349 Y99.448 E1.42413
G1 X130.612 Y100.348 E1.45532
G1 X130.808 Y101.341 E1.48898
G1 X130.86 Y101.686 E1.50059
G1 X130.96 Y102.618 E1.53176
G1 X130.981 Y103.134 E1.54894
G1 X130.999 Y104.244 E1.58586
G1 X130.998 Y116.028 E1.9778
G1 X130.987 Y116.779 E2.00278
G1 X130.933 Y117.715 E2.03397
G1 X130.862 Y118.281 E2.05294
G1 X130.808 Y118.634 E2.06482
G1 X130.626 Y119.555 E2.09604
G1 X130.396 Y120.384 E2.12465
G1 X130.044 Y121.364 E2.15929
G1 X129.692 Y122.138 E2.18757
G1 X129.497 Y122.526 E2.20201
G1 X129.04 Y123.345 E2.23321
G1 X128.268 Y124.445 E2.2779
G1 X128.008 Y124.771 E2.29177
G1 X127.392 Y125.478 E2.32296
G1 X126.45 Y126.362 E2.36593
G1 X126.108 Y126.647 E2.38073
G1 X125.363 Y127.217 E2.41193
G1 X124.571 Y127.72 E2.44314
G1 X123.413 Y128.302 E2.48624
G1 X122.969 Y128.493 E2.50232
G1 X122.092 Y128.826 E2.53352
G1 X121.252 Y129.069 E2.56261
G1 X120.854 Y129.167 E2.57624
G1 X119.935 Y129.352 E2.60742
G1 X119.003 Y129.458 E2.63862
G1 X118.398 Y129.485 E2.65876
G1 X117.577 Y129.498 E2.68607
G1 X112.23 Y129.5 E2.86391
G1 X111.583 Y129.492 E2.88543
G1 X108.897 Y129.492 E2.97477
G1 X108.188 Y129.5 E2.99835
G1 X102.327 Y129.498 E3.19329
G1 X101.626 Y129.487 E3.21661
G1 X100.69 Y129.432 E3.24779
G1 X99.377 Y129.218 E3.29204
G1 X98.996 Y129.132 E3.30503
G1 X98.091 Y128.887 E3.33621
G1 X97.244 Y128.579 E3.36619
G1 X96.81 Y128.401 E3.38179
G1 X95.958 Y128.009 E3.41299
G1 X95.143 Y127.545 E3.44418
G1 X94.304 Y126.963 E3.47814
G1 X93.78 Y126.552 E3.50029
G1 X93.519 Y126.336 E3.51156
G1 X92.822 Y125.708 E3.54276
G1 X92.182 Y125.023 E3.57394
G1 X91.415 Y124.016 E3.61604
G1 X91.145 Y123.616 E3.63209
G1 X90.654 Y122.817 E3.66329
G1 X90.186 Y121.875 E3.69827
G1 X89.992 Y121.432 E3.71436
G1 X89.653 Y120.557 E3.74557
G1 X89.389 Y119.657 E3.77676
G1 X89.187 Y118.632 E3.81151
G1 X89.136 Y118.288 E3.82308
G1 X89.038 Y117.355 E3.85428
G1 X89.019 Y116.866 E3.87055
G1 X89.001 Y115.756 E3.90748
G1 X89.002 Y103.964 E4.29968
G1 X89.013 Y103.219 E4.32446
G1 X89.067 Y102.282 E4.35568
G1 X89.14 Y101.711 E4.37483
G1 X89.193 Y101.366 E4.38643
G1 X89.374 Y100.446 E4.41762
G1 X89.589 Y99.663 E4.44463
G1 X89.937 Y98.683 E4.47922
G1 X90.308 Y97.862 E4.50918
G1 X90.503 Y97.474 E4.52362
G1 X90.96 Y96.655 E4.55482
G1 X91.731 Y95.557 E4.59944
G1 X91.967 Y95.261 E4.61203
G1 X92.583 Y94.553 E4.64325
G0 F6000 X92.885 Y94.816
G1 F1200 X93.633 Y94.101 E4.67766
G1 X93.996 Y93.787 E4.69363
G1 X94.718 Y93.216 E4.72424
G1 X95.487 Y92.709 E4.75488
G1 X96.296 Y92.271 E4.78548
G1 X96.74 Y92.068 E4.80171
G1 X97.186 Y91.876 E4.81786
G1 X98.046 Y91.549 E4.84847
G1 X98.849 Y91.318 E4.87626
G1 X99.248 Y91.22 E4.88992
G1 X100.15 Y91.039 E4.92052
G1 X101.065 Y90.938 E4.95114
G1 X101.608 Y90.915 E4.96922
G1 X102.429 Y90.902 E4.99653
G1 X107.77 Y90.9 E5.17417
G1 X108.411 Y90.908 E5.19549
G1 X111.108 Y90.908 E5.28519
G1 X111.812 Y90.9 E5.30861
G1 X117.666 Y90.902 E5.50331
G1 X118.367 Y90.913 E5.52663
G1 X119.286 Y90.968 E5.55725
G1 X120.535 Y91.172 E5.59934
G1 X120.916 Y91.258 E5.61234
G1 X121.804 Y91.5 E5.64295
G1 X122.596 Y91.788 E5.67098
G1 X123.031 Y91.966 E5.68661
G1 X123.868 Y92.351 E5.71725
G1 X124.667 Y92.807 E5.74785
G1 X125.476 Y93.371 E5.78065
G1 X125.965 Y93.756 E5.80135
G1 X126.226 Y93.972 E5.81262
G1 X126.909 Y94.589 E5.84323
G1 X127.536 Y95.263 E5.87385
G1 X128.247 Y96.197 E5.91289
G1 X128.515 Y96.593 E5.9288
G1 X128.997 Y97.377 E5.95941
G1 X129.448 Y98.288 E5.99322
G1 X129.643 Y98.734 E6.00941
G1 X129.975 Y99.592 E6.04
G1 X130.231 Y100.477 E6.07065
G1 X130.413 Y101.4 E6.10194
G1 X130.465 Y101.745 E6.11354
G1 X130.562 Y102.661 E6.14418
G1 X130.581 Y103.14 E6.16012
G1 X130.599 Y104.244 E6.19685
G1 X130.598 Y116.022 E6.58858
G1 X130.587 Y116.773 E6.61357
G1 X130.533 Y117.692 E6.64418
G1 X130.466 Y118.221 E6.66192
G1 X130.412 Y118.574 E6.6738
G1 X130.234 Y119.477 E6.70441
G1 X130.014 Y120.268 E6.73172
G1 X129.667 Y121.228 E6.76567
G1 X129.334 Y121.958 E6.79235
G1 X129.139 Y122.346 E6.8068
G1 X128.69 Y123.15 E6.83743
G1 X127.955 Y124.195 E6.87992
G1 X127.695 Y124.521 E6.89379
G1 X127.09 Y125.216 E6.92443
G1 X126.194 Y126.055 E6.96526
G1 X125.852 Y126.34 E6.98007
G1 X125.12 Y126.898 E7.01068
G1 X124.342 Y127.391 E7.04132
G1 X123.255 Y127.934 E7.08173
G1 X122.811 Y128.125 E7.09781
G1 X121.95 Y128.452 E7.12844
G1 X121.156 Y128.681 E7.15592
G1 X120.758 Y128.779 E7.16956
G1 X119.856 Y128.96 E7.20015
G1 X118.941 Y129.062 E7.23078
G1 X118.392 Y129.085 E7.24905
G1 X117.571 Y129.098 E7.27636
G1 X112.23 Y129.1 E7.454
G1 X111.589 Y129.092 E7.47533
G1 X108.892 Y129.092 E7.56503
G1 X108.188 Y129.1 E7.58845
G1 X102.334 Y129.098 E7.78315
G1 X101.633 Y129.087 E7.80647
G1 X100.714 Y129.032 E7.83709
G1 X99.465 Y128.828 E7.87918
G1 X99.084 Y128.742 E7.89217
G1 X98.196 Y128.5 E7.92278
G1 X97.396 Y128.209 E7.9511
G1 X96.962 Y128.031 E7.9667
G1 X96.126 Y127.645 E7.99733
G1 X95.327 Y127.188 E8.02794
G1 X94.547 Y126.645 E8.05955
G1 X94.035 Y126.244 E8.08118
G1 X93.774 Y126.028 E8.09245
G1 X93.091 Y125.411 E8.12306
G1 X92.464 Y124.737 E8.15368
G1 X91.746 Y123.792 E8.19315
G1 X91.476 Y123.392 E8.20921
G1 X90.995 Y122.608 E8.2398
G1 X90.552 Y121.714 E8.27298
G1 X90.358 Y121.271 E8.28907
G1 X90.026 Y120.413 E8.31967
G1 X89.769 Y119.528 E8.35032
G1 X89.583 Y118.574 E8.38265
G1 X89.532 Y118.23 E8.39421
G1 X89.419 Y116.86 E8.43993
G1 X89.401 Y115.756 E8.47666
G1 X89.402 Y103.97 E8.86866
G1 X89.413 Y103.225 E8.89344
G1 X89.467 Y102.305 E8.9241
G1 X89.535 Y101.771 E8.942
G1 X89.588 Y101.426 E8.95361
G1 X89.767 Y100.523 E8.98423
G1 X89.973 Y99.778 E9.00994
G1 X90.314 Y98.817 E9.04385
G1 X90.666 Y98.042 E9.07216
G1 X90.861 Y97.654 E9.08661
G1 X91.31 Y96.85 E9.11723
G1 X92.044 Y95.806 E9.15968
G1 X92.28 Y95.51 E9.17227
G1 X92.885 Y94.816 E9.20289
G0 F6000 X93.186 Y95.079
G1 F1200 X93.895 Y94.404 E9.23545
G1 X94.258 Y94.09 E9.25142
G1 X94.967 Y93.53 E9.28147
G1 X95.722 Y93.035 E9.31149
G1 X96.898 Y92.435 E9.3554
G1 X97.344 Y92.243 E9.37156
G1 X98.188 Y91.923 E9.40158
G1 X98.944 Y91.706 E9.42774
G1 X99.343 Y91.608 E9.4414
G1 X100.229 Y91.432 E9.47145
G1 X101.127 Y91.335 E9.50149
G1 X101.615 Y91.315 E9.51773
G1 X102.436 Y91.302 E9.54504
G1 X107.77 Y91.3 E9.72245
G1 X108.405 Y91.308 E9.74357
G1 X111.113 Y91.308 E9.83364
G1 X111.812 Y91.3 E9.85689
G1 X117.66 Y91.302 E10.0514
G1 X118.361 Y91.313 E10.07472
G1 X119.263 Y91.367 E10.10477
G1 X120.447 Y91.562 E10.14468
G1 X120.828 Y91.648 E10.15767
G1 X121.699 Y91.886 E10.1877
G1 X122.445 Y92.158 E10.21411
G1 X122.88 Y92.336 E10.22975
G1 X123.7 Y92.714 E10.25978
G1 X124.483 Y93.164 E10.28981
G1 X125.232 Y93.688 E10.32022
G1 X125.71 Y94.064 E10.34045
G1 X125.971 Y94.28 E10.35171
G1 X126.641 Y94.886 E10.38176
G1 X127.254 Y95.549 E10.41179
G1 X127.915 Y96.421 E10.44819
G1 X128.183 Y96.817 E10.46409
G1 X128.656 Y97.587 E10.49415
G1 X129.082 Y98.448 E10.5261
G1 X129.277 Y98.894 E10.54229
G1 X129.602 Y99.737 E10.57234
G1 X129.851 Y100.605 E10.60237
G1 X130.017 Y101.46 E10.63134
G1 X130.069 Y101.805 E10.64294
G1 X130.181 Y103.147 E10.68773
G1 X130.199 Y104.244 E10.72423
G1 X130.198 Y116.016 E11.11576
G1 X130.187 Y116.767 E11.14075
G1 X130.134 Y117.669 E11.1708
G1 X130.071 Y118.16 E11.18726
G1 X130.017 Y118.513 E11.19914
G1 X129.841 Y119.399 E11.22918
G1 X129.631 Y120.151 E11.25515
G1 X129.29 Y121.092 E11.28844
G1 X128.977 Y121.778 E11.31352
G1 X128.782 Y122.166 E11.32796
G1 X128.341 Y122.955 E11.35803
G1 X127.642 Y123.946 E11.39836
G1 X127.382 Y124.272 E11.41223
G1 X126.789 Y124.952 E11.44224
G1 X125.938 Y125.748 E11.481
G1 X125.596 Y126.033 E11.4958
G1 X124.877 Y126.58 E11.52585
G1 X124.113 Y127.061 E11.55588
G1 X123.097 Y127.567 E11.59363
G1 X122.653 Y127.758 E11.60971
G1 X121.808 Y128.078 E11.63976
G1 X121.061 Y128.292 E11.6656
G1 X120.663 Y128.39 E11.67924
G1 X119.777 Y128.567 E11.70929
G1 X118.879 Y128.665 E11.73933
G1 X118.385 Y128.685 E11.75578
G1 X117.564 Y128.698 E11.78309
G1 X112.23 Y128.7 E11.9605
G1 X111.595 Y128.692 E11.98162
G1 X108.887 Y128.692 E12.07169
G1 X108.188 Y128.7 E12.09494
G1 X102.34 Y128.698 E12.28944
G1 X101.639 Y128.687 E12.31276
G1 X100.737 Y128.633 E12.34281
G1 X99.553 Y128.438 E12.38272
G1 X99.172 Y128.352 E12.39572
G1 X98.301 Y128.114 E12.42575
G1 X97.547 Y127.839 E12.45244
G1 X97.113 Y127.661 E12.46804
G1 X96.294 Y127.282 E12.49806
G1 X95.511 Y126.831 E12.52811
G1 X94.79 Y126.328 E12.55735
G1 X94.29 Y125.936 E12.57848
G1 X94.029 Y125.72 E12.58975
G1 X93.359 Y125.114 E12.6198
G1 X92.746 Y124.451 E12.64983
G1 X92.078 Y123.569 E12.68663
G1 X91.808 Y123.169 E12.70268
G1 X91.336 Y122.398 E12.73275
G1 X90.919 Y121.554 E12.76406
G1 X90.725 Y121.111 E12.78015
G1 X90.399 Y120.268 E12.81021
G1 X90.15 Y119.4 E12.84024
G1 X89.978 Y118.515 E12.87023
G1 X89.927 Y118.171 E12.88179
G1 X89.819 Y116.853 E12.92578
G1 X89.801 Y115.756 E12.96227
G1 X89.802 Y103.975 E13.35411
G1 X89.813 Y103.23 E13.37889
G1 X89.866 Y102.329 E13.40891
G1 X89.93 Y101.832 E13.42557
G1 X89.983 Y101.487 E13.43718
G1 X90.16 Y100.602 E13.4672
G1 X90.355 Y99.893 E13.49166
G1 X90.692 Y98.952 E13.5249
G1 X91.023 Y98.222 E13.55156
G1 X91.218 Y97.834 E13.56601
G1 X91.659 Y97.045 E13.59607
G1 X92.357 Y96.055 E13.63636
G1 X92.593 Y95.759 E13.64895
G1 X93.186 Y95.079 E13.67896
G1 F1500 E7.17896
;MESH:strain-relief.stl
G0 F6000 X99.347 Y103.306
G0 X107.9 Y117.9
;TYPE:WALL-INNER
G1 F1500 E13.67896
G1 F1200 X107.9 Y114.522 E13.79131
G1 X107.512 Y114.408 E13.80476
G1 X107.108 Y114.202 E13.81984
G1 X106.756 Y113.932 E13.8346
G1 X106.374 Y113.531 E13.85302
G1 X106.015 Y112.843 E13.87883
G1 X105.882 Y112.066 E13.90505
G1 X105.948 Y111.486 E13.92446
G1 X106.094 Y111.01 E13.94102
G1 X106.297 Y110.611 E13.95591
G1 X106.571 Y110.254 E13.97088
G1 X106.97 Y109.873 E13.98923
G1 X107.571 Y109.559 E14.01178
G1 X107.9 Y109.474 E14.02309
G1 X107.9 Y102.101 E14.26831
G1 X101.862 Y102.101 E14.46914
G1 X101.585 Y102.166 E14.4786
G1 X101.247 Y102.31 E14.49082
G1 X101.001 Y102.523 E14.50164
G1 X100.828 Y102.74 E14.51087
G1 X100.654 Y103.079 E14.52355
G1 X100.601 Y103.467 E14.53657
G1 X100.602 Y116.589 E14.97301
G1 X100.643 Y116.863 E14.98223
G1 X100.757 Y117.138 E14.99213
G1 X100.954 Y117.442 E15.00418
G1 X101.29 Y117.712 E15.01851
G1 X101.574 Y117.831 E15.02875
G1 X101.871 Y117.899 E15.03889
G1 X107.9 Y117.9 E15.23941
G0 F6000 X108.3 Y118.3
;TYPE:WALL-OUTER
G1 F1200 X108.3 Y114.184 E15.37631
G1 X108.1 Y114.164 E15.383
G1 X107.646 Y114.027 E15.39877
G1 X107.342 Y113.872 E15.41012
G1 X107.014 Y113.622 E15.42384
G1 X106.7 Y113.293 E15.43896
G1 X106.398 Y112.715 E15.46065
G1 X106.283 Y112.039 E15.48346
G1 X106.346 Y111.55 E15.49986
G1 X106.473 Y111.146 E15.51394
G1 X106.628 Y110.842 E15.52529
G1 X106.878 Y110.514 E15.53901
G1 X107.207 Y110.2 E15.55414
G1 X107.781 Y109.9 E15.57568
G1 X108.3 Y109.811 E15.59319
G1 X108.3 Y101.701 E15.86293
G1 X101.816 Y101.701 E16.07859
G1 X101.461 Y101.784 E16.09072
G1 X101.032 Y101.966 E16.10622
G1 X100.711 Y102.245 E16.12036
G1 X100.491 Y102.521 E16.1321
G1 X100.326 Y102.841 E16.14408
G1 X100.25 Y103.081 E16.15245
G1 X100.201 Y103.44 E16.1645
G1 X100.202 Y116.619 E16.60284
G1 X100.255 Y116.971 E16.61468
G1 X100.401 Y117.325 E16.62741
G1 X100.653 Y117.714 E16.64283
G1 X101.084 Y118.059 E16.66119
G1 X101.451 Y118.213 E16.67443
G1 X101.826 Y118.299 E16.68722
G1 X108.3 Y118.3 E16.90255
G0 F6000 X108.03 Y118.03
G0 X107.539 Y117.799
G0 X107.54 Y117.54
;TYPE:SKIN
G1 F1200 X107.54 Y114.787 E16.99411
G1 X107.292 Y114.702 E17.00283
G1 X106.924 Y114.511 E17.01662
G1 X106.521 Y114.205 E17.03345
G1 X106.072 Y113.735 E17.05507
G1 X105.729 Y113.071 E17.07993
G1 X105.643 Y112.813 E17.08898
G1 X105.515 Y112.055 E17.11454
G1 X105.593 Y111.416 E17.13595
G1 X105.77 Y110.849 E17.15571
G1 X106.001 Y110.406 E17.17233
G1 X106.292 Y110.024 E17.1883
G1 X106.761 Y109.576 E17.20987
G1 X107.54 Y109.168 E17.23912
G1 X107.54 Y102.461 E17.4622
G1 X101.822 Y102.461 E17.65238
G1 X101.439 Y102.619 E17.66616
G1 X101.132 Y102.94 E17.68093
G1 X101.004 Y103.18 E17.68998
G1 X100.961 Y103.493 E17.70049
G1 X100.962 Y116.563 E18.1352
G1 X101.009 Y116.865 E18.14536
G1 X101.222 Y117.193 E18.15837
G1 X101.48 Y117.4 E18.16937
G1 X101.913 Y117.539 E18.1845
G1 X107.54 Y117.54 E18.37165
G0 F6000 X107.539 Y117.799
G0 X101.724 Y117.699
G0 X101.244 Y117.468
G0 X100.964 Y117.162
G0 X100.702 Y116.433
G0 X101.161 Y116.435
G1 F1200 X102.064 Y117.338 E18.41413
G0 F6000 X102.63 Y117.338
G1 F1200 X101.161 Y115.869 E18.48322
G0 F6000 X101.161 Y115.303
G1 F1200 X103.195 Y117.338 E18.57892
G0 F6000 X103.761 Y117.338
G1 F1200 X101.161 Y114.737 E18.70124
G0 F6000 X101.161 Y114.172
G1 F1200 X104.327 Y117.338 E18.85016
G0 F6000 X104.893 Y117.338
G1 F1200 X101.161 Y113.606 E19.0257
G0 F6000 X101.161 Y113.04
G1 F1200 X105.459 Y117.338 E19.22786
G0 F6000 X106.025 Y117.338
G1 F1200 X101.161 Y112.475 E19.45663
G0 F6000 X101.161 Y111.909
G1 F1200 X106.59 Y117.338 E19.71199
G0 F6000 X107.156 Y117.338
G1 F1200 X101.161 Y111.343 E19.99398
G0 F6000 X101.161 Y110.778
G1 F1200 X107.34 Y116.956 E20.2846
G0 F6000 X107.34 Y116.391
G1 F1200 X101.161 Y110.212 E20.57524
G0 F6000 X101.16 Y109.646
G1 F1200 X107.34 Y115.825 E20.8659
G0 F6000 X107.34 Y115.259
G1 F1200 X106.592 Y114.512 E20.90106
G0 F6000 X106.871 Y114.147
G0 X106.197 Y113.412
G0 X105.88 Y113.799
G1 F1200 X101.16 Y109.08 E21.12305
G0 F6000 X101.16 Y108.514
G1 F1200 X105.436 Y112.79 E21.32418
G0 F6000 X105.322 Y112.11
G1 F1200 X101.16 Y107.949 E21.51993
G0 F6000 X101.16 Y107.383
G1 F1200 X105.37 Y111.592 E21.71793
G0 F6000 X105.47 Y111.127
G1 F1200 X101.16 Y106.817 E21.92066
G0 F6000 X101.16 Y106.251
G1 F1200 X105.617 Y110.708 E22.1303
G0 F6000 X105.81 Y110.335
G1 F1200 X101.16 Y105.686 E22.349
G0 F6000 X101.16 Y105.12
G1 F1200 X106.051 Y110.01 E22.57903
G0 F6000 X106.323 Y109.717
G1 F1200 X101.16 Y104.554 E22.82189
G0 F6000 X101.16 Y103.989
G1 F1200 X106.611 Y109.44 E23.07828
G0 F6000 X106.975 Y109.238
G1 F1200 X101.17 Y103.433 E23.35133
G0 F6000 X101.325 Y103.022
G1 F1200 X107.34 Y109.037 E23.63426
G0 F6000 X107.34 Y108.471
G1 F1200 X101.626 Y102.758 E23.90301
G0 F6000 X102.094 Y102.66
G1 F1200 X107.34 Y107.905 E24.14974
G0 F6000 X107.34 Y107.34
G1 F1200 X102.66 Y102.66 E24.36987
G0 F6000 X103.226 Y102.66
G1 F1200 X107.34 Y106.774 E24.56338
