;FLAVOR:Marlin
;TIME:8553
;Filament used: 5.43102m
;Layer height: 0.2
;MINX:12
;MINY:81
;MINZ:0.2
;MAXX:208
;MAXY:139
;MAXZ:8
;Generated with Cura_SteamEngine 5.2.2
M140 S50
M105
M190 S50
M104 S228
M105
M109 S228
M82 ;absolute extrusion mode
; Ender 3 Custom Start G-code
G92 E0 ; Reset Extruder
G28 ; Home all axes
M420 S1 Z3;
G1 Z2.0 F3000 ; Move Z Axis up little to prevent scratching of Heat Bed
G1 X0.1 Y20 Z0.3 F5000.0 ; Move to start position
G1 X0.v1 Y200.0 Z0.3 F1500.0 E15 ; Draw the first line
G1 X0.4 Y200.0 Z0.3 F5000.0 ; Move to side a little
G1 X0.4 Y20 Z0.3 F1500.0 E30 ; Draw the second line
G92 E0 ; Reset Extruder
G1 Z2.0 F3000 ; Move Z Axis up little to prevent scratching of Heat Bed
G1 X5 Y20 Z0.3 F5000.0 ; Move over to prevent blob squish
G92 E0
G92 E0
G1 F2700 E-5
;LAYER_COUNT:40
;LAYER:0
M107
G0 F6000 X19.991 Y81.431 Z0.2
;TYPE:SKIRT
G1 F2700 E0
G1 F1200 X20.903 Y81.213 E0.03119
G1 X21.83 Y81.072 E0.06237
G1 X22.701 Y81.013 E0.09141
G1 X23.33 Y81 E0.11234
G1 X196.451 Y81.001 E5.87036
G1 X197.149 Y81.011 E5.89358
G1 X198.085 Y81.065 E5.92476
G1 X199.013 Y81.197 E5.95594
G1 X199.927 Y81.409 E5.98715
G1 X200.819 Y81.698 E6.01833
G1 X201.684 Y82.061 E6.04953
G1 X202.514 Y82.497 E6.08072
G1 X203.305 Y83.002 E6.11193
G1 X204.049 Y83.573 E6.14312
G1 X204.742 Y84.205 E6.17432
G1 X205.379 Y84.893 E6.2055
G1 X205.954 Y85.634 E6.2367
G1 X206.465 Y86.42 E6.26788
G1 X206.907 Y87.248 E6.2991
G1 X207.276 Y88.11 E6.33029
G1 X207.571 Y89 E6.36147
G1 X207.789 Y89.912 E6.39266
G1 X207.929 Y90.84 E6.42387
G1 X207.987 Y91.701 E6.45258
G1 X208 Y92.33 E6.4735
G1 X208 Y99.021 E6.69604
G1 X207.993 Y100.851 E6.75691
G1 X208 Y101.776 E6.78768
G1 X208 Y108.521 E7.01202
G1 X207.993 Y110.351 E7.07288
G1 X208 Y111.276 E7.10365
G1 X208 Y118.021 E7.32799
G1 X207.993 Y119.851 E7.38886
G1 X208 Y120.776 E7.41962
G1 X207.999 Y127.4 E7.63994
G1 X207.99 Y128.127 E7.66412
G1 X207.939 Y129.064 E7.69533
G1 X207.807 Y129.992 E7.72651
G1 X207.598 Y130.906 E7.75769
G1 X207.311 Y131.799 E7.78889
G1 X206.949 Y132.665 E7.82011
G1 X206.515 Y133.496 E7.85129
G1 X206.011 Y134.287 E7.88248
G1 X205.442 Y135.032 E7.91366
G1 X204.811 Y135.727 E7.94488
G1 X204.124 Y136.365 E7.97607
G1 X203.385 Y136.942 E8.00725
G1 X202.599 Y137.454 E8.03845
G1 X201.773 Y137.897 E8.06963
G1 X200.911 Y138.269 E8.10085
G1 X200.022 Y138.565 E8.13202
G1 X199.11 Y138.785 E8.16322
G1 X198.183 Y138.926 E8.19441
G1 X197.299 Y138.987 E8.22388
G1 X196.67 Y139 E8.2448
G1 X23.565 Y138.999 E14.0023
G1 X22.867 Y138.99 E14.02552
G1 X21.931 Y138.938 E14.0567
G1 X21.002 Y138.806 E14.0879
G1 X20.088 Y138.596 E14.1191
G1 X19.195 Y138.309 E14.15029
G1 X18.33 Y137.946 E14.1815
G1 X17.499 Y137.512 E14.21268
G1 X16.708 Y137.008 E14.24387
G1 X15.963 Y136.438 E14.27507
G1 X15.269 Y135.807 E14.30627
G1 X14.632 Y135.12 E14.33743
G1 X14.055 Y134.38 E14.36864
G1 X13.543 Y133.594 E14.39984
G1 X13.1 Y132.767 E14.43104
G1 X12.729 Y131.906 E14.46223
G1 X12.433 Y131.016 E14.49342
G1 X12.214 Y130.104 E14.52462
G1 X12.073 Y129.177 E14.5558
G1 X12.013 Y128.288 E14.58544
G1 X12 Y127.658 E14.6064
G1 X12 Y120.979 E14.82854
G1 X12.007 Y119.149 E14.88941
G1 X12 Y118.224 E14.92017
G1 X12 Y111.479 E15.14451
G1 X12.007 Y109.649 E15.20538
G1 X12 Y108.724 E15.23615
G1 X12 Y101.979 E15.46049
G1 X12.007 Y100.149 E15.52135
G1 X12 Y99.224 E15.55212
G1 X12.001 Y92.525 E15.77493
G1 X12.01 Y91.86 E15.79705
G1 X12.063 Y90.924 E15.82823
G1 X12.195 Y89.995 E15.85944
G1 X12.406 Y89.081 E15.89064
G1 X12.694 Y88.189 E15.92182
G1 X13.057 Y87.324 E15.95302
G1 X13.492 Y86.493 E15.98421
G1 X13.996 Y85.703 E16.01538
G1 X14.566 Y84.958 E16.04658
G1 X15.198 Y84.264 E16.0778
G1 X15.886 Y83.627 E16.10898
G1 X16.626 Y83.051 E16.14017
G1 X17.412 Y82.539 E16.17137
G1 X18.239 Y82.097 E16.20256
G1 X19.101 Y81.727 E16.23376
G1 X19.991 Y81.431 E16.26496
G0 F6000 X20.345 Y81.749
G1 F1200 X21.245 Y81.557 E16.29557
G1 X22.159 Y81.443 E16.3262
G1 X22.712 Y81.413 E16.34462
G1 X23.33 Y81.4 E16.36518
G1 X196.445 Y81.401 E22.12301
G1 X197.143 Y81.411 E22.14623
G1 X198.062 Y81.464 E22.17684
G1 X198.973 Y81.597 E22.20746
G1 X199.869 Y81.808 E22.23808
G1 X200.743 Y82.096 E22.26869
G1 X201.59 Y82.459 E22.29934
G1 X202.401 Y82.894 E22.32995
G1 X203.171 Y83.398 E22.36055
G1 X203.895 Y83.967 E22.39118
G1 X204.567 Y84.597 E22.42182
G1 X205.182 Y85.282 E22.45244
G1 X205.735 Y86.018 E22.48306
G1 X206.222 Y86.799 E22.51367
G1 X206.639 Y87.62 E22.5443
G1 X206.984 Y88.474 E22.57493
G1 X207.253 Y89.354 E22.60554
G1 X207.445 Y90.255 E22.63618
G1 X207.558 Y91.168 E22.66677
G1 X207.587 Y91.712 E22.68489
G1 X207.6 Y92.33 E22.70545
G1 X207.6 Y99.02 E22.92796
G1 X207.593 Y100.854 E22.98896
G1 X207.6 Y101.779 E23.01973
G1 X207.6 Y108.52 E23.24394
G1 X207.593 Y110.354 E23.30494
G1 X207.6 Y111.279 E23.3357
G1 X207.6 Y118.02 E23.55991
G1 X207.593 Y119.854 E23.62091
G1 X207.6 Y120.779 E23.65167
G1 X207.599 Y127.395 E23.87172
G1 X207.59 Y128.122 E23.89591
G1 X207.539 Y129.041 E23.92652
G1 X207.408 Y129.953 E23.95716
G1 X207.198 Y130.849 E23.98777
G1 X206.912 Y131.724 E24.01839
G1 X206.551 Y132.571 E24.04901
G1 X206.117 Y133.383 E24.07964
G1 X205.615 Y134.155 E24.11026
G1 X205.047 Y134.88 E24.1409
G1 X204.419 Y135.553 E24.17151
G1 X203.735 Y136.169 E24.20213
G1 X203 Y136.723 E24.23274
G1 X202.22 Y137.212 E24.26336
G1 X201.4 Y137.631 E24.29399
G1 X200.547 Y137.977 E24.3246
G1 X199.667 Y138.248 E24.35523
G1 X198.767 Y138.441 E24.38584
G1 X197.853 Y138.556 E24.41648
G1 X197.288 Y138.587 E24.4353
G1 X196.67 Y138.6 E24.45586
G1 X23.57 Y138.599 E30.21319
G1 X22.872 Y138.59 E30.23641
G1 X21.953 Y138.538 E30.26702
G1 X21.042 Y138.407 E30.29764
G1 X20.146 Y138.197 E30.32825
G1 X19.271 Y137.91 E30.35887
G1 X18.424 Y137.548 E30.38951
G1 X17.612 Y137.114 E30.42013
G1 X16.841 Y136.612 E30.45073
G1 X16.116 Y136.044 E30.48137
G1 X15.443 Y135.415 E30.512
G1 X14.828 Y134.731 E30.5426
G1 X14.274 Y133.996 E30.57321
G1 X13.786 Y133.215 E30.60384
G1 X13.367 Y132.395 E30.63447
G1 X13.021 Y131.542 E30.66508
G1 X12.751 Y130.662 E30.6957
G1 X12.558 Y129.761 E30.72635
G1 X12.444 Y128.848 E30.75695
G1 X12.413 Y128.277 E30.77597
G1 X12.4 Y127.658 E30.79656
G1 X12.4 Y120.98 E31.01867
G1 X12.407 Y119.146 E31.07967
G1 X12.4 Y118.221 E31.11044
G1 X12.4 Y111.48 E31.33464
G1 X12.407 Y109.646 E31.39564
G1 X12.4 Y108.721 E31.42641
G1 X12.4 Y101.98 E31.65062
G1 X12.407 Y100.146 E31.71162
G1 X12.4 Y99.221 E31.74238
G1 X12.401 Y92.531 E31.96489
G1 X12.41 Y91.866 E31.98701
G1 X12.462 Y90.946 E32.01766
G1 X12.594 Y90.035 E32.04828
G1 X12.805 Y89.139 E32.07889
G1 X13.092 Y88.264 E32.10952
G1 X13.455 Y87.418 E32.14014
G1 X13.889 Y86.606 E32.17076
G1 X14.392 Y85.835 E32.20138
G1 X14.961 Y85.111 E32.23201
G1 X15.589 Y84.439 E32.2626
G1 X16.274 Y83.823 E32.29324
G1 X17.01 Y83.27 E32.32386
G1 X17.791 Y82.782 E32.35449
G1 X18.611 Y82.364 E32.3851
G1 X19.465 Y82.019 E32.41574
G1 X20.345 Y81.749 E32.44635
G0 F6000 X20.696 Y82.075
G1 F1200 X21.584 Y81.909 E32.4764
G1 X22.723 Y81.813 E32.51442
G1 X23.33 Y81.8 E32.53461
G1 X196.439 Y81.801 E38.29224
G1 X197.137 Y81.811 E38.31546
G1 X198.039 Y81.864 E38.34551
G1 X198.932 Y81.996 E38.37553
G1 X199.81 Y82.207 E38.40557
G1 X200.666 Y82.495 E38.43561
G1 X201.493 Y82.857 E38.46563
G1 X202.285 Y83.292 E38.49569
G1 X203.036 Y83.794 E38.52573
G1 X203.739 Y84.361 E38.55577
G1 X204.389 Y84.988 E38.58581
G1 X204.981 Y85.67 E38.61585
G1 X205.511 Y86.401 E38.64588
G1 X205.973 Y87.177 E38.67592
G1 X206.366 Y87.99 E38.70595
G1 X206.684 Y88.835 E38.73598
G1 X206.927 Y89.705 E38.76602
G1 X207.092 Y90.593 E38.79606
G1 X207.187 Y91.723 E38.83378
G1 X207.2 Y92.33 E38.85397
G1 X207.2 Y99.019 E39.07645
G1 X207.193 Y100.857 E39.13758
G1 X207.2 Y101.782 E39.16835
G1 X207.2 Y108.519 E39.39242
G1 X207.193 Y110.357 E39.45356
G1 X207.2 Y111.282 E39.48432
G1 X207.2 Y118.019 E39.7084
G1 X207.193 Y119.857 E39.76953
G1 X207.2 Y120.782 E39.80029
G1 X207.199 Y127.39 E40.02008
G1 X207.19 Y128.117 E40.04426
G1 X207.139 Y129.019 E40.07431
G1 X207.008 Y129.913 E40.10436
G1 X206.799 Y130.791 E40.13438
G1 X206.513 Y131.648 E40.16443
G1 X206.152 Y132.476 E40.19447
G1 X205.72 Y133.268 E40.22448
G1 X205.219 Y134.02 E40.25453
G1 X204.653 Y134.724 E40.28457
G1 X204.028 Y135.375 E40.31459
G1 X203.347 Y135.969 E40.34465
G1 X202.616 Y136.5 E40.3747
G1 X201.842 Y136.964 E40.40471
G1 X201.029 Y137.358 E40.43476
G1 X200.185 Y137.678 E40.46478
G1 X199.315 Y137.923 E40.49484
G1 X198.428 Y138.089 E40.52486
G1 X197.277 Y138.187 E40.56328
G1 X196.67 Y138.2 E40.58347
G1 X23.575 Y138.199 E46.34064
G1 X22.877 Y138.19 E46.36385
G1 X21.976 Y138.139 E46.39387
G1 X21.082 Y138.007 E46.42392
G1 X20.204 Y137.798 E46.45394
G1 X19.347 Y137.511 E46.484
G1 X18.52 Y137.15 E46.51402
G1 X17.727 Y136.717 E46.54407
G1 X16.976 Y136.216 E46.57409
G1 X16.272 Y135.65 E46.60414
G1 X15.621 Y135.024 E46.63418
G1 X15.028 Y134.343 E46.66421
G1 X14.498 Y133.612 E46.69424
G1 X14.034 Y132.837 E46.72428
G1 X13.64 Y132.024 E46.75433
G1 X13.32 Y131.18 E46.78435
G1 X13.076 Y130.31 E46.81441
G1 X12.91 Y129.422 E46.84445
G1 X12.813 Y128.267 E46.883
G1 X12.8 Y127.658 E46.90326
G1 X12.8 Y120.981 E47.12534
G1 X12.807 Y119.143 E47.18648
G1 X12.8 Y118.218 E47.21724
G1 X12.8 Y111.481 E47.44132
G1 X12.807 Y109.643 E47.50245
G1 X12.8 Y108.718 E47.53321
G1 X12.8 Y101.981 E47.75729
G1 X12.807 Y100.143 E47.81842
G1 X12.8 Y99.218 E47.84919
G1 X12.801 Y92.536 E48.07143
G1 X12.81 Y91.871 E48.09355
G1 X12.862 Y90.969 E48.1236
G1 X12.994 Y90.076 E48.15363
G1 X13.204 Y89.198 E48.18365
G1 X13.491 Y88.341 E48.21371
G1 X13.853 Y87.514 E48.24374
G1 X14.286 Y86.722 E48.27376
G1 X14.788 Y85.971 E48.3038
G1 X15.355 Y85.267 E48.33387
G1 X15.981 Y84.617 E48.36388
G1 X16.662 Y84.024 E48.39392
G1 X17.394 Y83.494 E48.42398
G1 X18.169 Y83.031 E48.454
G1 X18.982 Y82.638 E48.48404
G1 X19.827 Y82.318 E48.51409
G1 X20.696 Y82.075 E48.5441
G1 F2700 E43.5441
;MESH:tension-bar-inserts.stl
G0 F6000 X23.414 Y91.335
G0 X23.6 Y98.9
;TYPE:WALL-INNER
G1 F2700 E48.5441
G1 F1200 X196.4 Y98.9 E54.29145
G1 X196.4 Y92.6 E54.50099
G1 X23.6 Y92.6 E60.24834
G1 X23.6 Y95.75 E60.35311
G1 X23.6 Y98.9 E60.45788
G0 F6000 X23.2 Y99.3
;TYPE:WALL-OUTER
G1 F1200 X196.8 Y99.3 E66.23184
G1 X196.8 Y92.2 E66.46799
G1 X23.2 Y92.2 E72.24195
G1 X23.2 Y95.75 E72.36002
G1 X23.2 Y99.3 E72.47809
G0 F6000 X23.47 Y99.03
G0 X23.7 Y98.54
G0 X23.96 Y98.54
;TYPE:SKIN
G1 F1200 X196.04 Y98.54 E78.2015
G1 X196.04 Y92.96 E78.38709
G1 X23.96 Y92.96 E84.11049
G1 X23.96 Y95.75 E84.20329
G1 X23.96 Y98.54 E84.29609
G0 F6000 X24.234 Y98.339
G1 F1200 X24.159 Y98.264 E84.29961
G0 F6000 X24.159 Y97.698
G1 F1200 X24.8 Y98.339 E84.32976
G0 F6000 X25.366 Y98.339
G1 F1200 X24.159 Y97.133 E84.38651
G0 F6000 X24.159 Y96.567
G1 F1200 X25.931 Y98.339 E84.46986
G0 F6000 X26.497 Y98.339
G1 F1200 X24.159 Y96.001 E84.57984
G0 F6000 X24.159 Y95.436
G1 F1200 X27.063 Y98.339 E84.71641
G0 F6000 X27.628 Y98.339
G1 F1200 X24.159 Y94.87 E84.87958
G0 F6000 X24.159 Y94.304
G1 F1200 X28.194 Y98.339 E85.06937
G0 F6000 X28.76 Y98.339
G1 F1200 X24.159 Y93.739 E85.28577
G0 F6000 X24.159 Y93.173
G1 F1200 X29.325 Y98.339 E85.52876
G0 F6000 X29.891 Y98.339
G1 F1200 X24.711 Y93.159 E85.77241
G0 F6000 X25.277 Y93.159
G1 F1200 X30.457 Y98.339 E86.01606
G0 F6000 X31.022 Y98.339
G1 F1200 X25.843 Y93.159 E86.25969
G0 F6000 X26.409 Y93.159
G1 F1200 X31.588 Y98.339 E86.50332
G0 F6000 X32.154 Y98.339
G1 F1200 X26.974 Y93.159 E86.74697
G0 F6000 X27.54 Y93.159
G1 F1200 X32.719 Y98.339 E86.9906
G0 F6000 X33.285 Y98.339
G1 F1200 X28.106 Y93.159 E87.23422
G0 F6000 X28.671 Y93.159
G1 F1200 X33.851 Y98.339 E87.47788
G0 F6000 X34.417 Y98.339
G1 F1200 X29.237 Y93.159 E87.72153
G0 F6000 X29.803 Y93.159
G1 F1200 X34.982 Y98.339 E87.96515
G0 F6000 X35.548 Y98.339
G1 F1200 X30.368 Y93.159 E88.20881
G0 F6000 X30.934 Y93.159
G1 F1200 X36.114 Y98.339 E88.45246
G0 F6000 X36.679 Y98.339
G1 F1200 X31.5 Y93.159 E88.69608
G0 F6000 X32.065 Y93.159
G1 F1200 X37.245 Y98.339 E88.93974
G0 F6000 X37.811 Y98.339
G1 F1200 X32.631 Y93.159 E89.18339
G0 F6000 X33.197 Y93.159
G1 F1200 X38.376 Y98.339 E89.42702
G0 F6000 X38.942 Y98.339
G1 F1200 X33.762 Y93.159 E89.67067
G0 F6000 X34.328 Y93.159
G1 F1200 X39.508 Y98.339 E89.91432
G0 F6000 X40.073 Y98.339
G1 F1200 X34.894 Y93.159 E90.15795
G0 F6000 X35.459 Y93.159
G1 F1200 X40.639 Y98.339 E90.4016
G0 F6000 X41.205 Y98.339
G1 F1200 X36.025 Y93.159 E90.64525
G0 F6000 X36.591 Y93.159
G1 F1200 X41.77 Y98.339 E90.88888
G0 F6000 X42.336 Y98.339
G1 F1200 X37.157 Y93.159 E91.1325
G0 F6000 X37.722 Y93.159
G1 F1200 X42.902 Y98.339 E91.37616
G0 F6000 X43.467 Y98.339
G1 F1200 X38.288 Y93.159 E91.61978
G0 F6000 X38.854 Y93.159
G1 F1200 X44.033 Y98.339 E91.86341
G0 F6000 X44.599 Y98.339
G1 F1200 X39.419 Y93.159 E92.10706
G0 F6000 X39.985 Y93.159
G1 F1200 X45.165 Y98.339 E92.35071
G0 F6000 X45.73 Y98.339
G1 F1200 X40.551 Y93.159 E92.59434
G0 F6000 X41.116 Y93.159
G1 F1200 X46.296 Y98.339 E92.83799
G0 F6000 X46.862 Y98.339
G1 F1200 X41.682 Y93.159 E93.08164
G0 F6000 X42.248 Y93.159
G1 F1200 X47.427 Y98.339 E93.32527
G0 F6000 X47.993 Y98.339
G1 F1200 X42.813 Y93.159 E93.56892
G0 F6000 X43.379 Y93.159
G1 F1200 X48.559 Y98.339 E93.81257
G0 F6000 X49.124 Y98.339
G1 F1200 X43.945 Y93.159 E94.0562
G0 F6000 X44.51 Y93.159
G1 F1200 X49.69 Y98.339 E94.29985
G0 F6000 X50.256 Y98.339
G1 F1200 X45.076 Y93.159 E94.5435
G0 F6000 X45.642 Y93.159
G1 F1200 X50.821 Y98.339 E94.78713
G0 F6000 X51.387 Y98.339
G1 F1200 X46.208 Y93.159 E95.03076
G0 F6000 X46.773 Y93.159
G1 F1200 X51.953 Y98.339 E95.27441
G0 F6000 X52.518 Y98.339
G1 F1200 X47.339 Y93.159 E95.51804
G0 F6000 X47.905 Y93.159
G1 F1200 X53.084 Y98.339 E95.76167
G0 F6000 X53.65 Y98.339
G1 F1200 X48.47 Y93.159 E96.00532
G0 F6000 X49.036 Y93.159
G1 F1200 X54.215 Y98.339 E96.24895
G0 F6000 X54.781 Y98.339
G1 F1200 X49.602 Y93.159 E96.49257
G0 F6000 X50.167 Y93.159
G1 F1200 X55.347 Y98.339 E96.73623
G0 F6000 X55.913 Y98.339
G1 F1200 X50.733 Y93.159 E96.97988
G0 F6000 X51.299 Y93.159
G1 F1200 X56.478 Y98.339 E97.2235
G0 F6000 X57.044 Y98.339
G1 F1200 X51.864 Y93.159 E97.46716
G0 F6000 X52.43 Y93.159
G1 F1200 X57.61 Y98.339 E97.71081
G0 F6000 X58.175 Y98.339
G1 F1200 X52.996 Y93.159 E97.95444
G0 F6000 X53.561 Y93.159
G1 F1200 X58.741 Y98.339 E98.19809
G0 F6000 X59.307 Y98.339
G1 F1200 X54.127 Y93.159 E98.44174
G0 F6000 X54.693 Y93.159
G1 F1200 X59.872 Y98.339 E98.68537
G0 F6000 X60.438 Y98.339
G1 F1200 X55.258 Y93.159 E98.92902
G0 F6000 X55.824 Y93.159
G1 F1200 X61.004 Y98.339 E99.17267
G0 F6000 X61.569 Y98.339
G1 F1200 X56.39 Y93.159 E99.4163
G0 F6000 X56.956 Y93.159
G1 F1200 X62.135 Y98.339 E99.65992
G0 F6000 X62.701 Y98.339
G1 F1200 X57.521 Y93.159 E99.90358
G0 F6000 X58.087 Y93.159
G1 F1200 X63.266 Y98.339 E100.1472
G0 F6000 X63.832 Y98.339
G1 F1200 X58.653 Y93.159 E100.39083
G0 F6000 X59.218 Y93.159
G1 F1200 X64.398 Y98.339 E100.63448
G0 F6000 X64.964 Y98.339
G1 F1200 X59.784 Y93.159 E100.87813
G0 F6000 X60.35 Y93.159
G1 F1200 X65.529 Y98.339 E101.12176
G0 F6000 X66.095 Y98.339
G1 F1200 X60.915 Y93.159 E101.36541
G0 F6000 X61.481 Y93.159
G1 F1200 X66.661 Y98.339 E101.60906
G0 F6000 X67.226 Y98.339
G1 F1200 X62.047 Y93.159 E101.85269
G0 F6000 X62.612 Y93.159
G1 F1200 X67.792 Y98.339 E102.09634
G0 F6000 X68.358 Y98.339
G1 F1200 X63.178 Y93.159 E102.33999
G0 F6000 X63.744 Y93.159
G1 F1200 X68.923 Y98.339 E102.58362
G0 F6000 X69.489 Y98.339
G1 F1200 X64.309 Y93.159 E102.82727
G0 F6000 X64.875 Y93.159
G1 F1200 X70.055 Y98.339 E103.07092
G0 F6000 X70.62 Y98.339
G1 F1200 X65.441 Y93.159 E103.31455
G0 F6000 X66.007 Y93.159
G1 F1200 X71.186 Y98.339 E103.55818
G0 F6000 X71.752 Y98.339
G1 F1200 X66.572 Y93.159 E103.80183
G0 F6000 X67.138 Y93.159
G1 F1200 X72.317 Y98.339 E104.04546
G0 F6000 X72.883 Y98.339
G1 F1200 X67.704 Y93.159 E104.28909
G0 F6000 X68.269 Y93.159
G1 F1200 X73.449 Y98.339 E104.53274
G0 F6000 X74.014 Y98.339
G1 F1200 X68.835 Y93.159 E104.77637
G0 F6000 X69.401 Y93.159
G1 F1200 X74.58 Y98.339 E105.01999
G0 F6000 X75.146 Y98.339
G1 F1200 X69.966 Y93.159 E105.26365
G0 F6000 X70.532 Y93.159
G1 F1200 X75.712 Y98.339 E105.5073
G0 F6000 X76.277 Y98.339
G1 F1200 X71.098 Y93.159 E105.75092
G0 F6000 X71.663 Y93.159
